!!!OTL: 569. Husarenlied.
!!!COM: C. M. v. Weber
!!!ODT: 1815
!!!ARE: Europa, Mitteleuropa, Deutschland
!!!SCT: B0569
!!!TXL: @@DE
!!!YEM: Copyright 1995, estate of Helmut Schaffrath.
**kern	**text
*ICvox	*
*Ivox	*
*clefG2	*
*M2/4	*
*k[f#c#g#]	*
*A:	*
!LO:TX:a:t=Sehr raſch.	!
{8e	Hu-
=1	=1
16.a	-ſa-
32g#	-ren
16.a	ſind
32b	gar
8cc#	wack-
8a	-re
=2	=2
8.bL	Truppen,
16cc#J	.
8b}	.
{8e	und
=3	=3
16.dd	je-
32cc#	-der-
16.b	-mann
32a	iſt
16g#L	ih-
16aJ	.
16bL	-nen
16g#J	.
=4	=4
4cc#	hold;
8r}	.
{8e	von
=5	=5
16.a	au-
32g#	-ßen
16.a	ʒier-
32b	-lich
8cc#	wie
8a	die
=6	=6
8.bL	Pup-
16cc#J	.
8b}	-pen,
{8e	doch
=7	=7
16.dd	kern-
32cc#	-ge-
16.b	-die-
32a	-gen
16g#L	wie
16aJ	.
16bL	das
16g#J	.
=8	=8
4cc#	Gold.
8r}	.
{8e	Und
=9	=9
4g#	ſteht
4e	die
=10	=10
4b	Welt
4e	nach
=11	=11
4ccn	tauſend
4a	.
=12	=12
4b	Jahren,
8e}	.
{8e	ſo
=13	=13
16.a	le-
32g#	-ben
16.a	ſie
32b	noch,
8cc#	die
8a	Hu-
=14	=14
4ee	-ſa-
8cc#	-ren,
8cc#	Hu-
=15	=15
[4b	-ſa-
16bL]	.
16dd	.
16cc#	.
16bJ	.
=16	=16
4a	-ren!
8r}	.
{8e	Und
=17	=17
4g#	ſteht
4e	die
=18	=18
4b	Welt
4e	nach
=19	=19
4ccn	tauſend
4a	.
=20	=20
4b	Jahren,
8e}	.
{8e	ſo
=21	=21
16.a	le-
32g#	-ben
16.a	ſie
32b	noch,
8cc#	die
8a	Hu-
=22	=22
4ee	-ſa-
8cc#	-ren,
8cc#	Hu-
=23	=23
[4b	-ſa-
16bL]	.
16dd	.
16cc#	.
16bJ	.
=24	=24
4a	-ren!
8r}	.
==	==
!!!AGN: Staende -, Soldaten - Lied
!!!GTL: Soldatenlieder
!!!ONB: ESAC (Essen Associative Code) Database: BOEHME
!!!AMT: simple quadruple
!!!AIN: vox
!!!EED: Helmut Schaffrath
!!!EEV: 1.0
!!C. M. v. Weber um 1815
!!@@COMMENT:"Gedicht von Karl von Decker (d. i. Adalbert vom Thale) um 1815. Mel. v. C. M. v. Weber. op. 68."
!!@@END:
!!!Text: K. von Decker
!!!URL-scan: https://archive.org/details/BoehmeVtLieder1895/page/n451/mode/2up
!!!ENC: Anna Maria Matuszewska
!!!EEV: 2024/12/07
*-	*-
